graphics/logo.svg

<?xml version="1.0" encoding="UTF-8" standalone="no"?>
<!-- Created with Inkscape (http://www.inkscape.org/) -->

<svg
   width="512"
   height="512"
   viewBox="0 0 135.46666 135.46667"
   version="1.1"
   id="svg8"
   inkscape:version="1.2 (1:1.2+202206011327+fc4e4096c5)"
   sodipodi:docname="favicon.svg"
   inkscape:export-filename="/home/joaorodriguesjr/fasting/graphics/favicon.png"
   inkscape:export-xdpi="96"
   inkscape:export-ydpi="96"
   xmlns:inkscape="http://www.inkscape.org/namespaces/inkscape"
   xmlns:sodipodi="http://sodipodi.sourceforge.net/DTD/sodipodi-0.dtd"
   xmlns="http://www.w3.org/2000/svg"
   xmlns:svg="http://www.w3.org/2000/svg"
   xmlns:rdf="http://www.w3.org/1999/02/22-rdf-syntax-ns#"
   xmlns:cc="http://creativecommons.org/ns#"
   xmlns:dc="http://purl.org/dc/elements/1.1/">
  <defs
     id="defs2" />
  <sodipodi:namedview
     id="base"
     pagecolor="#ffffff"
     bordercolor="#666666"
     borderopacity="1.0"
     inkscape:pageopacity="0.0"
     inkscape:pageshadow="2"
     inkscape:zoom="1.4"
     inkscape:cx="251.78571"
     inkscape:cy="154.64286"
     inkscape:document-units="px"
     inkscape:current-layer="layer1"
     showgrid="false"
     units="px"
     inkscape:window-width="1920"
     inkscape:window-height="2089"
     inkscape:window-x="1920"
     inkscape:window-y="34"
     inkscape:window-maximized="0"
     inkscape:showpageshadow="0"
     inkscape:pagecheckerboard="1"
     inkscape:deskcolor="#d1d1d1">
    <inkscape:grid
       type="xygrid"
       id="grid815"
       empspacing="16" />
  </sodipodi:namedview>
  <metadata
     id="metadata5">
    <rdf:RDF>
      <cc:Work
         rdf:about="">
        <dc:format>image/svg+xml</dc:format>
        <dc:type
           rdf:resource="http://purl.org/dc/dcmitype/StillImage" />
        <dc:title />
      </cc:Work>
    </rdf:RDF>
  </metadata>
  <g
     inkscape:label="Layer 1"
     inkscape:groupmode="layer"
     id="layer1"
     transform="translate(0,-161.53331)">
    <circle
       style="display:inline;opacity:1;fill:#323232;fill-opacity:1;stroke:none;stroke-width:14.8167;stroke-linejoin:bevel;stroke-miterlimit:4;stroke-dasharray:none;stroke-opacity:1"
       id="path864"
       cx="67.73333"
       cy="229.26665"
       r="67.73333"
       inkscape:label="Background" />
    <path
       style="opacity:1;fill:#45d865;fill-opacity:1;stroke:none;stroke-width:30.81385422;stroke-linejoin:bevel;stroke-miterlimit:4;stroke-dasharray:none;stroke-opacity:1"
       d="m 158.68945,81.691406 c -1.5131,-0.06493 -3.24069,0.326671 -5.15625,1.488282 -7.66224,4.64644 -3.01562,12.308593 -3.01562,12.308593 l 23.23242,38.312499 -7.66211,4.64649 -23.23242,-38.3125 c 0,0 -4.64637,-7.662072 -12.30859,-3.015629 -7.66225,4.646439 -3.01758,12.308589 -3.01758,12.308589 l 23.23242,38.3125 -7.66211,4.64454 -23.23242,-38.31055 c 0,0 -4.64635,-7.66207 -12.3086,-3.01563 -7.662234,4.64645 -3.01562,12.3086 -3.01562,12.3086 l 27.87891,45.97461 c 13.9393,22.98674 36.57884,9.25647 46.17187,24.67968 0,0 4.69338,7.35335 9.33984,15.01563 4.64644,7.66224 -3.01562,12.30859 -3.01562,12.30859 l 46.46484,76.62305 c 0,0 0.69837,0.94505 1.97657,2.2207 2.69739,10.78336 14.82031,10.79297 14.82031,10.79297 h 184.27929 c 0,0 15.35743,0.001 15.35743,-15.35547 0,-23.03495 -23.0348,-30.71484 -53.74805,-30.71484 h -53.74805 v 7.47266 c 0,7.884 -7.67969,7.88476 -7.67969,7.88476 h -70.13867 c -0.27491,-0.55075 -0.4707,-0.88672 -0.4707,-0.88672 l -46.46484,-76.62304 c 0,0 -7.66216,4.64661 -12.3086,-3.01563 -4.64645,-7.66226 -8.99609,-15.22266 -8.99609,-15.22266 -9.24168,-15.63628 13.39831,-29.36482 -0.54102,-52.35156 L 165.8418,86.195312 c 0,0 -2.61302,-4.309117 -7.15235,-4.503906 z"
       id="path854"
       inkscape:connector-curvature="0"
       sodipodi:nodetypes="sscccccccccccccscccccsscsccccscccs"
       inkscape:label="Pointers"
       transform="matrix(0.26458333,0,0,0.26458333,0,161.53331)" />
    <path
       style="color:#000000;display:inline;fill:#45d865;stroke-width:0.941187;stroke-linejoin:bevel;-inkscape-stroke:none"
       d="m 67.732479,161.53332 c -37.361254,0 -67.7323404459,30.37293 -67.7323404459,67.7342 0,37.36127 30.3710864459,67.73236 67.7323404459,67.73236 37.361251,0 67.734181,-30.37109 67.734181,-67.73236 0,-37.36127 -30.37293,-67.7342 -67.734181,-67.7342 z m 0,7.96884 c 33.054651,0 59.765341,26.7107 59.765341,59.76536 0,33.05466 -26.71069,59.76537 -59.765341,59.76537 -33.054646,0 -59.7653436,-26.71071 -59.7653436,-59.76537 0,-33.05466 26.7106976,-59.76536 59.7653436,-59.76536 z"
       id="circle252"
       inkscape:label="Border" />
  </g>
</svg>

<?xml version="1.0" encoding="UTF-8" standalone="no"?>
<!-- Created with Inkscape (http://www.inkscape.org/) -->

<svg
   xmlns:dc="http://purl.org/dc/elements/1.1/"
   xmlns:cc="http://creativecommons.org/ns#"
   xmlns:rdf="http://www.w3.org/1999/02/22-rdf-syntax-ns#"
   xmlns:svg="http://www.w3.org/2000/svg"
   xmlns="http://www.w3.org/2000/svg"
   xmlns:xlink="http://www.w3.org/1999/xlink"
   xmlns:sodipodi="http://sodipodi.sourceforge.net/DTD/sodipodi-0.dtd"
   xmlns:inkscape="http://www.inkscape.org/namespaces/inkscape"
   width="512"
   height="512"
   viewBox="0 0 135.46666 135.46667"
   version="1.1"
   id="svg8"
   inkscape:version="0.92.5 (2060ec1f9f, 2020-04-08)"
   sodipodi:docname="logo.svg">
  <defs
     id="defs2">
    <linearGradient
       inkscape:collect="always"
       id="linearGradient856">
      <stop
         style="stop-color:#815fc2;stop-opacity:1"
         offset="0"
         id="stop852" />
      <stop
         id="stop860"
         offset="0.15625"
         style="stop-color:#ca65b2;stop-opacity:1" />
      <stop
         style="stop-color:#f17993;stop-opacity:1"
         offset="0.375"
         id="stop862" />
      <stop
         id="stop864"
         offset="0.65625"
         style="stop-color:#f17993;stop-opacity:1" />
      <stop
         style="stop-color:#f39c73;stop-opacity:1"
         offset="0.84375"
         id="stop866" />
      <stop
         style="stop-color:#f8d58f;stop-opacity:1"
         offset="1"
         id="stop854" />
    </linearGradient>
    <linearGradient
       inkscape:collect="always"
       xlink:href="#linearGradient856"
       id="linearGradient868"
       x1="11.625795"
       y1="208.72945"
       x2="127"
       y2="208.72945"
       gradientUnits="userSpaceOnUse" />
  </defs>
  <sodipodi:namedview
     id="base"
     pagecolor="#ffffff"
     bordercolor="#666666"
     borderopacity="1.0"
     inkscape:pageopacity="0.0"
     inkscape:pageshadow="2"
     inkscape:zoom="1.4"
     inkscape:cx="90.667131"
     inkscape:cy="114.59055"
     inkscape:document-units="px"
     inkscape:current-layer="layer1"
     showgrid="true"
     units="px"
     inkscape:window-width="1920"
     inkscape:window-height="2089"
     inkscape:window-x="1920"
     inkscape:window-y="34"
     inkscape:window-maximized="0">
    <inkscape:grid
       type="xygrid"
       id="grid815"
       empspacing="16" />
  </sodipodi:namedview>
  <metadata
     id="metadata5">
    <rdf:RDF>
      <cc:Work
         rdf:about="">
        <dc:format>image/svg+xml</dc:format>
        <dc:type
           rdf:resource="http://purl.org/dc/dcmitype/StillImage" />
        <dc:title />
      </cc:Work>
    </rdf:RDF>
  </metadata>
  <g
     inkscape:label="Layer 1"
     inkscape:groupmode="layer"
     id="layer1"
     transform="translate(0,-161.53331)">
    <path
       style="opacity:1;fill:#4d4d4d;fill-opacity:1;stroke:none;stroke-width:30.81385422;stroke-linejoin:bevel;stroke-miterlimit:4;stroke-dasharray:none;stroke-opacity:1"
       d="M 256 0 A 255.99999 255.99999 0 0 0 0 256 A 255.99999 255.99999 0 0 0 256 512 A 255.99999 255.99999 0 0 0 512 256 A 255.99999 255.99999 0 0 0 256 0 z M 256 18.5 A 237.49999 237.49999 0 0 1 493.5 256 A 237.49999 237.49999 0 0 1 256 493.5 A 237.49999 237.49999 0 0 1 18.5 256 A 237.49999 237.49999 0 0 1 256 18.5 z M 158.68945 81.691406 C 157.17635 81.626477 155.44876 82.018077 153.5332 83.179688 C 145.87096 87.826128 150.51758 95.488281 150.51758 95.488281 L 173.75 133.80078 L 166.08789 138.44727 L 142.85547 100.13477 C 142.85547 100.13477 138.2091 92.472698 130.54688 97.119141 C 122.88463 101.76558 127.5293 109.42773 127.5293 109.42773 L 150.76172 147.74023 L 143.09961 152.38477 L 119.86719 114.07422 C 119.86719 114.07422 115.22084 106.41215 107.55859 111.05859 C 99.896356 115.70504 104.54297 123.36719 104.54297 123.36719 L 132.42188 169.3418 C 146.36118 192.32854 169.00072 178.59827 178.59375 194.02148 C 178.59375 194.02148 183.28713 201.37483 187.93359 209.03711 C 192.58003 216.69935 184.91797 221.3457 184.91797 221.3457 L 231.38281 297.96875 C 231.38281 297.96875 232.08118 298.9138 233.35938 300.18945 C 236.05677 310.97281 248.17969 310.98242 248.17969 310.98242 L 432.45898 310.98242 C 432.45898 310.98242 447.81641 310.98356 447.81641 295.62695 C 447.81641 272.592 424.78161 264.91211 394.06836 264.91211 L 340.32031 264.91211 L 340.32031 272.38477 C 340.32031 280.26877 332.64062 280.26953 332.64062 280.26953 L 262.50195 280.26953 C 262.22704 279.71878 262.03125 279.38281 262.03125 279.38281 L 215.56641 202.75977 C 215.56641 202.75977 207.90425 207.40638 203.25781 199.74414 C 198.61136 192.08188 194.26172 184.52148 194.26172 184.52148 C 185.02004 168.8852 207.66003 155.15666 193.7207 132.16992 L 165.8418 86.195312 C 165.8418 86.195312 163.22878 81.886195 158.68945 81.691406 z "
       transform="matrix(0.26458333,0,0,0.26458333,0,161.53331)"
       id="path854" />
    <g
       id="g860"
       transform="matrix(0.79041463,0,0,0.79041463,18.101969,48.497049)"
       style="fill:url(#linearGradient868)">
      <g
         style="fill:url(#linearGradient868)"
         transform="matrix(0.60587238,-0.36740544,0.36740544,0.60587238,-68.865752,85.508882)"
         id="g852">
        <g
           id="g872" />
      </g>
    </g>
  </g>
</svg>
